!!!SOCIAL_FUNCTION:	moccasin game songs
!!!PDT:	1913
!!!OTL: No_125_Moccasin_Game_Song.krn
!!!REG: Great_Lakes
!!!LANG: Non-Tone
!!!LING_GROUP: Algonquin
**kern	**kern
*staff2	*staff1
=1-	=1-
*clefF4	*clefF4
*k[f#c#g#]	*k[f#c#g#]
*M3/4	*M3/4
8GG#^/	8.C#/L
16r	.
16GG#/	16c#/Jk
8GG#^/	12c#\L
.	12c#\
16r	.
.	12G#\J
16GG#/	.
8GG#^/	16G#\LK
.	8.G#\J
16r	.
16GG#/	.
=2	=2
8GG#^/	8.c#\L
16r	.
16GG#/	16G#\Jk
2r	12G#\L
.	12F#\
.	12C#\J
.	16C#/LK
.	8.C#/J
=3	=3
2.r	8.F#\L
.	16G#\Jk
.	12G#\L
.	12G#\
.	12G#\J
.	16F#\LK
.	8.F#\J
=4	=4
2.r	8.G#\L
.	16A\Jk
.	12G#\L
.	12F#\
.	12C#\J
.	12C#/L
.	12C#/
.	12AA/J
=5	=5
2.r	8.C#/L
.	16C#/Jk
.	12C#/L
.	12C#/
.	12AA/J
.	16AA/LK
.	8.AA/J
=6	=6
2.r	8.D\L
.	16F#\Jk
.	12F#\L
.	12F#\
.	12C#\J
.	12C#/L
.	12C#/
.	12AA/J
=7	=7
2.r	8.C#/L
.	16C#/Jk
.	12C#/L
.	12C#/
.	12C#/J
.	16C#/LK
.	8.C#/J
=8	=8
2.r	2.C#/
==	==
*-	*-
